X:25
T:Gavatt. TBe.025
M:C|
L:1/4
Q:1/2=80
B:Thomas Bennet MS,1718, VWML
R:.Gavot
H:1718
Z:Village Music Project, Cherri Graebe 2004
K:E minor
geb2 | ^d>e f2 | BEc2 | B^de2 |
gebz | ^d>efz | g>f e/d/^c/d/ | d ^c/B/B2 ||
dBe2 | fdg2 | gea g/f/ | ^d>e f2 |
geb>c' | bea>g | f/e/^d/e/ Bg | e>^de2 |]

